X: 15918
T: Granddaughter's Dream, The
R: waltz
M: 3/4
K: Dmajor
"D" DE FG AB|"A" A3 A Bc|"Bm" d2 B2 "E" ed|"A" c2 A4|
"D" d2 e2 f2|"G" ef g2 e2|"E7" d3 e dB|"A" c2 AG FE|
"D" D3 d cd|"D/F#" A2 D2 DE|"Gmaj7" F2 FG A2|"A" A6|
"D" f2 ed cd|"D/F#" A3 d cd|"A11" A2 d2 c2|1 "D" d6:|2 "D" d4 e2||
|:"Bb" =f3 e d2|"C" e3 =f g2|"A/C#" a2 g=f eg|"Dm" =f2 d3 e|
"G#dim" =f2 e2 d2|"A" e2 A2 A2|"A" g2 A2 A2|"A" a2 A2 A2|
"D" f2 ed cd|"D" A4 ed|"F#" cd ef ge|"B" f2 B2 a2|
"Em" g2 fg ed|"A" e2 A3 G|"D" FA df "A" ec|1 "D" d4 e2:|2 "D" d6||

